places/48/user-trash.svg

<?xml version="1.0" encoding="UTF-8" standalone="no"?>
<svg
   xmlns:dc="http://purl.org/dc/elements/1.1/"
   xmlns:cc="http://creativecommons.org/ns#"
   xmlns:rdf="http://www.w3.org/1999/02/22-rdf-syntax-ns#"
   xmlns:svg="http://www.w3.org/2000/svg"
   xmlns="http://www.w3.org/2000/svg"
   xmlns:xlink="http://www.w3.org/1999/xlink"
   version="1.0"
   width="48"
   height="48"
   id="svg3695">
  <metadata
     id="metadata11265">
    <rdf:RDF>
      <cc:Work
         rdf:about="">
        <dc:format>image/svg+xml</dc:format>
        <dc:type
           rdf:resource="http://purl.org/dc/dcmitype/StillImage" />
        <dc:title />
      </cc:Work>
    </rdf:RDF>
  </metadata>
  <defs
     id="defs3697">
    <linearGradient
       id="linearGradient5060">
      <stop
         id="stop5062"
         style="stop-color:#000000;stop-opacity:1"
         offset="0" />
      <stop
         id="stop5064"
         style="stop-color:#000000;stop-opacity:0"
         offset="1" />
    </linearGradient>
    <radialGradient
       cx="62.71241"
       cy="108.02493"
       r="47.38271"
       fx="62.71241"
       fy="108.02493"
       id="radialGradient3269"
       xlink:href="#linearGradient5060"
       gradientUnits="userSpaceOnUse"
       gradientTransform="matrix(0.3587806,0,0,0.2110472,1.5000008,15.20272)" />
    <linearGradient
       id="linearGradient3384">
      <stop
         id="stop3386"
         style="stop-color:#6e6e6e;stop-opacity:1"
         offset="0" />
      <stop
         id="stop3388"
         style="stop-color:#9f9fa1;stop-opacity:1"
         offset="1" />
    </linearGradient>
    <linearGradient
       x1="31.048019"
       y1="45"
       x2="31.048019"
       y2="5.5"
       id="linearGradient3266"
       xlink:href="#linearGradient3384"
       gradientUnits="userSpaceOnUse"
       gradientTransform="translate(0,2)" />
    <linearGradient
       id="linearGradient2793-2-0-403">
      <stop
         id="stop4645"
         style="stop-color:#8d909a;stop-opacity:1"
         offset="0" />
      <stop
         id="stop4647"
         style="stop-color:#d9d9d9;stop-opacity:1"
         offset="1" />
    </linearGradient>
    <linearGradient
       x1="11.93083"
       y1="26.410894"
       x2="21.514704"
       y2="26.410894"
       id="linearGradient3264"
       xlink:href="#linearGradient2793-2-0-403"
       gradientUnits="userSpaceOnUse"
       gradientTransform="matrix(1.2083478,0,0,1.5198788,-1.979478,-15.055094)"
       spreadMethod="reflect" />
    <radialGradient
       cx="19.308081"
       cy="21.029308"
       r="14.500172"
       fx="19.308081"
       fy="21.029308"
       id="radialGradient3258"
       xlink:href="#linearGradient3254-8-457"
       gradientUnits="userSpaceOnUse"
       gradientTransform="matrix(0,1.679283,-1.6454754,0,48.823182,-18.496093)"
       spreadMethod="pad" />
    <linearGradient
       id="linearGradient3355-273">
      <stop
         id="stop4657"
         style="stop-color:#f0f0f0;stop-opacity:1"
         offset="0" />
      <stop
         id="stop3619"
         style="stop-color:#777779;stop-opacity:1"
         offset="0.44955608" />
      <stop
         id="stop4659"
         style="stop-color:#6c6c70;stop-opacity:1"
         offset="1" />
    </linearGradient>
    <linearGradient
       x1="23.999979"
       y1="9.3726854"
       x2="23.999979"
       y2="2.0968478"
       id="linearGradient3255"
       xlink:href="#linearGradient3355-273"
       gradientUnits="userSpaceOnUse"
       gradientTransform="matrix(1.1598658,0,0,1.3742464,-3.8367541,-0.9326014)" />
    <linearGradient
       id="linearGradient3320">
      <stop
         id="stop3323"
         style="stop-color:#4e4e4e;stop-opacity:1"
         offset="0" />
      <stop
         id="stop3325"
         style="stop-color:#b9bac2;stop-opacity:1"
         offset="1" />
    </linearGradient>
    <linearGradient
       x1="9.0003471"
       y1="8"
       x2="24"
       y2="8"
       id="linearGradient3253"
       xlink:href="#linearGradient3320"
       gradientUnits="userSpaceOnUse"
       spreadMethod="reflect" />
    <linearGradient
       id="linearGradient3627">
      <stop
         id="stop3629"
         style="stop-color:#000000;stop-opacity:0"
         offset="0" />
      <stop
         id="stop3190"
         style="stop-color:#000000;stop-opacity:0"
         offset="0.5" />
      <stop
         id="stop3631"
         style="stop-color:#000000;stop-opacity:1"
         offset="1" />
    </linearGradient>
    <radialGradient
       cx="24"
       cy="7.7919979"
       r="14.507708"
       fx="24"
       fy="7.7919979"
       id="radialGradient3250"
       xlink:href="#linearGradient3627"
       gradientUnits="userSpaceOnUse"
       gradientTransform="matrix(-3.2042761e-8,0.6892888,-3.1574826,0,48.603098,-13.542931)"
       spreadMethod="pad" />
    <linearGradient
       id="linearGradient3254-8-457">
      <stop
         id="stop4669"
         style="stop-color:#ffffff;stop-opacity:1"
         offset="0" />
      <stop
         id="stop4671"
         style="stop-color:#ffffff;stop-opacity:0"
         offset="1" />
    </linearGradient>
    <linearGradient
       x1="23.5"
       y1="10.996204"
       x2="23.5"
       y2="39.850574"
       id="linearGradient3247"
       xlink:href="#linearGradient3254-8-457"
       gradientUnits="userSpaceOnUse"
       gradientTransform="matrix(1.2227969,0,0,1.9458981,-4.735753,-31.362975)" />
    <linearGradient
       id="linearGradient3254-3-182">
      <stop
         id="stop4663"
         style="stop-color:#ffffff;stop-opacity:1"
         offset="0" />
      <stop
         id="stop4665"
         style="stop-color:#ffffff;stop-opacity:0"
         offset="1" />
    </linearGradient>
    <linearGradient
       x1="12.25"
       y1="20.230709"
       x2="17.125"
       y2="34.173542"
       id="linearGradient3261"
       xlink:href="#linearGradient3254-3-182"
       gradientUnits="userSpaceOnUse"
       gradientTransform="matrix(0.8965013,0,0,1.365896,4.7251825,-8.808688)" />
    <linearGradient
       x1="24"
       y1="13.506023"
       x2="24"
       y2="43"
       id="linearGradient3389"
       xlink:href="#linearGradient3205"
       gradientUnits="userSpaceOnUse"
       gradientTransform="matrix(1,0.3684052,0,1,0,-4.9734702)" />
    <linearGradient
       id="linearGradient3205">
      <stop
         id="stop3207"
         style="stop-color:#000000;stop-opacity:1"
         offset="0" />
      <stop
         id="stop3209"
         style="stop-color:#000000;stop-opacity:0"
         offset="1" />
    </linearGradient>
    <linearGradient
       x1="24"
       y1="15.502284"
       x2="24"
       y2="45"
       id="linearGradient3373"
       xlink:href="#linearGradient3205"
       gradientUnits="userSpaceOnUse"
       gradientTransform="matrix(1,0.04605065,0,1,0,-0.9440383)" />
    <linearGradient
       xlink:href="#linearGradient4404-5-5-1"
       id="linearGradient3083"
       gradientUnits="userSpaceOnUse"
       gradientTransform="matrix(0.72972969,0,0,0.72972969,3.516668,-7.0913942)"
       x1="32.180862"
       y1="13.828948"
       x2="32.180862"
       y2="28.903023" />
    <linearGradient
       id="linearGradient4404-5-5-1">
      <stop
         id="stop4406-9-1-0"
         style="stop-color:#ffffff;stop-opacity:1"
         offset="0" />
      <stop
         id="stop4408-7-4-4"
         style="stop-color:#ffffff;stop-opacity:0.23529412"
         offset="0.09090912" />
      <stop
         id="stop4410-6-4-0"
         style="stop-color:#ffffff;stop-opacity:0.15686275"
         offset="0.81818187" />
      <stop
         id="stop4412-1-5-5"
         style="stop-color:#ffffff;stop-opacity:0.39215687"
         offset="1" />
    </linearGradient>
    <linearGradient
       xlink:href="#linearGradient4238-0"
       id="linearGradient3081"
       gradientUnits="userSpaceOnUse"
       gradientTransform="matrix(0.45754817,0,0,0.47298439,-1.837284,-3.6558699)"
       spreadMethod="reflect"
       x1="34.613369"
       y1="26.410894"
       x2="19.314434"
       y2="26.410894" />
    <linearGradient
       id="linearGradient4238-0">
      <stop
         offset="0"
         style="stop-color:#8d909a;stop-opacity:1"
         id="stop4240-2" />
      <stop
         offset="1"
         style="stop-color:#e5e5e5;stop-opacity:1"
         id="stop4242-27" />
    </linearGradient>
    <linearGradient
       y2="26.410894"
       x2="19.314434"
       y1="26.410894"
       x1="34.613369"
       spreadMethod="reflect"
       gradientTransform="matrix(0.45754817,0,0,0.47298439,-1.837284,-3.6558699)"
       gradientUnits="userSpaceOnUse"
       id="linearGradient3076"
       xlink:href="#linearGradient4238-0" />
    <linearGradient
       xlink:href="#linearGradient3205"
       id="linearGradient3069"
       gradientUnits="userSpaceOnUse"
       gradientTransform="matrix(1,0.04527436,0,0.98314261,0,-0.16951428)"
       x1="24"
       y1="15.502284"
       x2="24"
       y2="45" />
    <linearGradient
       xlink:href="#linearGradient3205"
       id="linearGradient3072"
       gradientUnits="userSpaceOnUse"
       gradientTransform="matrix(1,0.35683526,0,0.96859453,0,-3.4637108)"
       x1="24"
       y1="13.506023"
       x2="24"
       y2="43" />
    <linearGradient
       xlink:href="#linearGradient3254-3-182"
       id="linearGradient3075"
       gradientUnits="userSpaceOnUse"
       gradientTransform="matrix(0.8965013,0,0,1.365896,4.7251825,-8.808688)"
       x1="12.25"
       y1="20.230709"
       x2="17.125"
       y2="34.173542" />
    <linearGradient
       xlink:href="#linearGradient3254-8-457"
       id="linearGradient3078"
       gradientUnits="userSpaceOnUse"
       gradientTransform="matrix(1.2227969,0,0,1.9458981,-4.735753,-31.362975)"
       x1="23.5"
       y1="10.996204"
       x2="23.5"
       y2="39.850574" />
    <radialGradient
       xlink:href="#linearGradient3254-8-457"
       id="radialGradient3089"
       gradientUnits="userSpaceOnUse"
       gradientTransform="matrix(0,1.679283,-1.6454754,0,48.823182,-18.496093)"
       spreadMethod="pad"
       cx="19.308081"
       cy="21.029308"
       fx="19.308081"
       fy="21.029308"
       r="14.500172" />
    <linearGradient
       xlink:href="#linearGradient2793-2-0-403"
       id="linearGradient3092"
       gradientUnits="userSpaceOnUse"
       gradientTransform="matrix(1.2083478,0,0,1.5198788,-1.979478,-15.055094)"
       spreadMethod="reflect"
       x1="11.93083"
       y1="26.410894"
       x2="21.514704"
       y2="26.410894" />
    <linearGradient
       xlink:href="#linearGradient3384"
       id="linearGradient3094"
       gradientUnits="userSpaceOnUse"
       gradientTransform="translate(0,2)"
       x1="31.048019"
       y1="45"
       x2="31.048019"
       y2="5.5" />
    <radialGradient
       xlink:href="#linearGradient5060"
       id="radialGradient3097"
       gradientUnits="userSpaceOnUse"
       gradientTransform="matrix(0.3587806,0,0,0.16883776,1.5000008,21.762176)"
       cx="62.71241"
       cy="108.02493"
       fx="62.71241"
       fy="108.02493"
       r="47.38271" />
  </defs>
  <path
     style="fill:url(#radialGradient3097);fill-opacity:1;fill-rule:evenodd;stroke:none;stroke-width:1.05496335;marker:none;visibility:visible;display:inline;overflow:visible"
     id="path12941"
     d="M 41,40.000881 C 40.998964,44.418816 33.388109,48 24,48 14.611891,48 7.0010357,44.418816 7,40.000881 6.9989643,35.582258 14.610427,32 24,32 c 9.389573,0 17.001036,3.582258 17,8.000881 z" />
  <path
     style="fill:url(#linearGradient3092);fill-opacity:1;fill-rule:nonzero;stroke:url(#linearGradient3094);stroke-width:0.99999994;stroke-opacity:1;marker:none;visibility:visible;display:inline;overflow:visible"
     id="path2230"
     d="m 9.4998277,8 0,32 c 0,2.936408 4.4077703,5.5 14.5001733,5.5 10.092403,0 14.500171,-2.563592 14.500171,-5.5 l 0,-32 z" />
  <path
     style="opacity:0.4;fill:url(#radialGradient3089);fill-opacity:1;fill-rule:nonzero;stroke:none;stroke-width:0.99999994;marker:none;visibility:visible;display:inline;overflow:visible"
     id="path3212"
     d="m 10,9 0,31 c 0,2.822002 6.272,6.000003 14.000001,6 C 31.728001,46 38,42.822002 38,40 L 38,9 C 38,9 10,9 10,9 z" />
  <path
     style="opacity:0.15;fill:none;stroke:url(#linearGradient3078);stroke-width:0.99999982;stroke-linecap:round;stroke-linejoin:round;stroke-miterlimit:4;stroke-opacity:1;stroke-dasharray:none;stroke-dashoffset:0;marker:none;visibility:visible;display:inline;overflow:visible"
     id="path2206"
     d="m 10.5,7.8105818 c 0,2.2237962 0,30.5970462 0,32.8246752 0,2.68534 6.075144,4.864745 13.499975,4.864745 7.42483,0 13.500024,-2.179405 13.500024,-4.864745 0,-2.061124 0,-30.7635493 0,-32.8246752 0,-2.2435666 -6.079164,-4.3470216 -13.500024,-4.310103 C 16.579114,3.5373993 10.5,5.5773261 10.5,7.8105818 z" />
  <path
     style="opacity:0.2;fill:url(#linearGradient3075);fill-opacity:1;fill-rule:nonzero;stroke:none;stroke-width:1;marker:none;visibility:visible;display:inline;overflow:visible"
     id="rect3244"
     d="m 16.379699,12.177193 4.482507,0.868458 0,33.208353 -4.482507,-1.109791 0,-32.96702 0,0 z" />
  <path
     style="opacity:0.15;fill:url(#linearGradient3072);fill-opacity:1;fill-rule:nonzero;stroke:none;stroke-width:0.99992186;marker:none;visibility:visible;display:inline;overflow:visible;enable-background:accumulate"
     id="path3287"
     d="m 13.5,14.435425 c 0.831,0.296531 1.5,1.183243 1.5,1.988145 l 0,25.661921 C 15,42.890393 14.331,43.29966 13.5,43.00313 12.669,42.7066 12,41.819887 12,41.014985 l 0,-25.661921 c 0,-0.804902 0.669,-1.214169 1.5,-0.917639 z m 21,-0.239231 c -0.831,0.29653 -1.5,1.183243 -1.5,1.988145 l 0,25.661921 c 0,0.804902 0.669,1.214169 1.5,0.917639 0.831,-0.296531 1.5,-1.183243 1.5,-1.988145 l 0,-25.661921 c 0,-0.804902 -0.669,-1.214169 -1.5,-0.917639 z" />
  <path
     style="opacity:0.3;fill:url(#linearGradient3069);fill-opacity:1;fill-rule:nonzero;stroke:none;stroke-width:0.99992186;marker:none;visibility:visible;display:inline;overflow:visible;enable-background:accumulate"
     id="path3293"
     d="m 20.5,16.003242 c 0.831,0.03762 1.5,0.725634 1.5,1.542625 l 0,26.047358 c 0,0.816992 -0.669,1.444425 -1.5,1.406803 C 19.669,44.962405 19,44.274394 19,43.457402 l 0,-26.047358 c 0,-0.816991 0.669,-1.444425 1.5,-1.406802 z m 7,0 c -0.831,0.03762 -1.5,0.725634 -1.5,1.542625 l 0,26.047358 c 0,0.816992 0.669,1.444425 1.5,1.406803 0.831,-0.03762 1.5,-0.725634 1.5,-1.542626 l 0,-26.047358 c 0,-0.816991 -0.669,-1.444425 -1.5,-1.406802 z" />
  <g
     id="g3215">
    <path
       transform="matrix(2.4870466,0,0,1.9753086,4.1036289,2.098765)"
       d="m 8,1.46875 c -1.7572026,0 -3.3544793,0.2196475 -4.46875,0.5625 -0.5571353,0.1714263 -0.9846671,0.3694792 -1.25,0.5625 C 2.0159171,2.7867708 1.96875,2.9230812 1.96875,3 l 0,2 c 0,0.076919 0.047167,0.2132292 0.3125,0.40625 0.2653329,0.1930208 0.6928647,0.3910737 1.25,0.5625 1.1142707,0.3428525 2.7115474,0.5625 4.46875,0.5625 1.7572027,0 3.354479,-0.2196475 4.46875,-0.5625 0.557135,-0.1714263 0.984667,-0.3694792 1.25,-0.5625 C 13.984083,5.2132292 14.03125,5.0769189 14.03125,5 l 0,-2 c 0,-0.076919 -0.04717,-0.2132292 -0.3125,-0.40625 -0.265333,-0.1930208 -0.692865,-0.3910737 -1.25,-0.5625 C 11.354479,1.6883975 9.7572027,1.46875 8,1.46875 z"
       id="path5418"
       style="color:#000000;fill:url(#linearGradient3076);fill-opacity:1;fill-rule:nonzero;stroke:none;stroke-width:1.03944016;marker:none;visibility:visible;display:inline;overflow:visible;enable-background:accumulate" />
    <path
       id="path5019-9"
       d="m 24,4.4999998 c -8.560412,0 -15.5000001,1.6416213 -15.5000001,3.6666663 l 0,3.6666669 C 8.4999999,13.858378 15.439588,15.5 24,15.5 c 8.560413,0 15.5,-1.641622 15.5,-3.666667 l 0,-3.6666669 C 39.5,6.1416211 32.560413,4.4999998 24,4.4999998 z"
       style="opacity:0.5;color:#000000;fill:none;stroke:#161b28;stroke-width:0.99999988;stroke-linecap:butt;stroke-linejoin:miter;stroke-miterlimit:4;stroke-opacity:1;stroke-dasharray:none;stroke-dashoffset:0;marker:none;visibility:visible;display:inline;overflow:visible;enable-background:accumulate" />
    <path
       transform="matrix(2.0714286,0,0,-0.85714287,-29.857139,11.499847)"
       d="M 33,3.5 C 33,5.4329966 29.865993,7 26,7 22.134007,7 19,5.4329966 19,3.5 19,1.5670034 22.134007,0 26,0 c 3.865993,0 7,1.5670034 7,3.5 z"
       id="path4564-1-6"
       style="opacity:0.7;color:#000000;fill:none;stroke:url(#linearGradient3083);stroke-width:0.75047868;stroke-linecap:round;stroke-linejoin:round;stroke-miterlimit:4;stroke-opacity:1;stroke-dasharray:none;stroke-dashoffset:0;marker:none;visibility:visible;display:inline;overflow:visible;enable-background:accumulate" />
    <path
       id="rect4167-4"
       d="M 20.142857,4.4999997 C 19.786714,4.4999997 19.5,4.797333 19.5,5.1666663 c 0,1.5555556 0,3.3333333 0,3.3333333 l 2,0 0,-1.9999996 5,0 0,1.9999996 2,0 0,-3.3333333 C 28.5,4.797333 28.213286,4.4999997 27.857143,4.4999997 z"
       style="color:#000000;fill:#dcdcdd;fill-opacity:1;fill-rule:nonzero;stroke:none;stroke-width:1.01884639;marker:none;visibility:visible;display:inline;overflow:visible;enable-background:accumulate" />
    <path
       id="rect4167"
       d="M 20.142857,4.4999999 C 19.786714,4.4999999 19.5,4.7973332 19.5,5.1666665 19.5,6.7222222 19.5,8.5 19.5,8.5 l 2,0 0,-1.5 C 21.46404,6.6044996 22.040159,6.5 22.040159,6.5 l 3.955004,0 c 0,0 0.504837,0.1044996 0.504837,0.5 l 0,1.5 2,0 0,-3.3333335 c 0,-0.3693333 -0.286714,-0.6666666 -0.642857,-0.6666666 z"
       style="opacity:0.3;color:#000000;fill:none;stroke:#161b28;stroke-width:0.99999994;stroke-linecap:butt;stroke-linejoin:miter;stroke-miterlimit:4;stroke-opacity:1;stroke-dasharray:none;stroke-dashoffset:0;marker:none;visibility:visible;display:inline;overflow:visible;enable-background:accumulate" />
  </g>
</svg>

<svg xmlns="http://www.w3.org/2000/svg" xmlns:xlink="http://www.w3.org/1999/xlink" viewBox="0 0 48 48"><defs><linearGradient id="h"><stop offset="0"/><stop offset="1" stop-opacity="0"/></linearGradient><linearGradient id="g"><stop offset="0" stop-color="#6e6e6e"/><stop offset="1" stop-color="#9f9fa1"/></linearGradient><linearGradient id="f"><stop offset="0" stop-color="#8d909a"/><stop offset="1" stop-color="#d9d9d9"/></linearGradient><linearGradient id="e"><stop offset="0" stop-color="#fff"/><stop offset="1" stop-color="#fff" stop-opacity="0"/></linearGradient><linearGradient id="d"><stop offset="0" stop-color="#fff"/><stop offset="1" stop-color="#fff" stop-opacity="0"/></linearGradient><linearGradient id="c"><stop offset="0"/><stop offset="1" stop-opacity="0"/></linearGradient><linearGradient xlink:href="#a" id="r" gradientUnits="userSpaceOnUse" gradientTransform="translate(3.517 -7.09) scale(.72973)" x1="32.181" y1="13.829" x2="32.181" y2="28.903"/><linearGradient id="a"><stop offset="0" stop-color="#fff"/><stop offset=".091" stop-color="#fff" stop-opacity=".235"/><stop offset=".818" stop-color="#fff" stop-opacity=".157"/><stop offset="1" stop-color="#fff" stop-opacity=".392"/></linearGradient><linearGradient id="b"><stop offset="0" stop-color="#8d909a"/><stop offset="1" stop-color="#e5e5e5"/></linearGradient><linearGradient y2="26.411" x2="19.314" y1="26.411" x1="34.613" spreadMethod="reflect" gradientTransform="matrix(.45755 0 0 .47298 -1.837 -3.656)" gradientUnits="userSpaceOnUse" id="q" xlink:href="#b"/><linearGradient xlink:href="#c" id="p" gradientUnits="userSpaceOnUse" gradientTransform="matrix(1 .04527 0 .98314 0 -.17)" x1="24" y1="15.502" x2="24" y2="45"/><linearGradient xlink:href="#c" id="o" gradientUnits="userSpaceOnUse" gradientTransform="matrix(1 .35684 0 .9686 0 -3.464)" x1="24" y1="13.506" x2="24" y2="43"/><linearGradient xlink:href="#d" id="n" gradientUnits="userSpaceOnUse" gradientTransform="matrix(.8965 0 0 1.366 4.725 -8.81)" x1="12.25" y1="20.231" x2="17.125" y2="34.174"/><linearGradient xlink:href="#e" id="m" gradientUnits="userSpaceOnUse" gradientTransform="matrix(1.2228 0 0 1.946 -4.736 -31.363)" x1="23.5" y1="10.996" x2="23.5" y2="39.851"/><radialGradient xlink:href="#e" id="l" gradientUnits="userSpaceOnUse" gradientTransform="matrix(0 1.67928 -1.64548 0 48.823 -18.496)" spreadMethod="pad" cx="19.308" cy="21.029" fx="19.308" fy="21.029" r="14.5"/><linearGradient xlink:href="#f" id="j" gradientUnits="userSpaceOnUse" gradientTransform="matrix(1.20835 0 0 1.51988 -1.98 -15.055)" spreadMethod="reflect" x1="11.931" y1="26.411" x2="21.515" y2="26.411"/><linearGradient xlink:href="#g" id="k" gradientUnits="userSpaceOnUse" gradientTransform="translate(0 2)" x1="31.048" y1="45" x2="31.048" y2="5.5"/><radialGradient xlink:href="#h" id="i" gradientUnits="userSpaceOnUse" gradientTransform="matrix(.35878 0 0 .16884 1.5 21.762)" cx="62.712" cy="108.025" fx="62.712" fy="108.025" r="47.383"/></defs><path d="M41 40c0 4.42-7.612 8-17 8S7 44.42 7 40c0-4.418 7.61-8 17-8s17 3.582 17 8z" fill="url(#i)" fill-rule="evenodd" overflow="visible"/><path d="M9.5 8v32c0 2.936 4.408 5.5 14.5 5.5 10.092 0 14.5-2.564 14.5-5.5V8z" fill="url(#j)" stroke="url(#k)" overflow="visible"/><path d="M10 9v31c0 2.822 6.272 6 14 6s14-3.178 14-6V9H10z" opacity=".4" fill="url(#l)" overflow="visible"/><path d="M10.5 7.81v32.825c0 2.686 6.075 4.865 13.5 4.865s13.5-2.18 13.5-4.865V7.81c0-2.243-6.08-4.346-13.5-4.31-7.42.037-13.5 2.077-13.5 4.31z" opacity=".15" fill="none" stroke="url(#m)" stroke-linecap="round" stroke-linejoin="round" overflow="visible"/><path d="M16.38 12.177l4.482.87v33.207l-4.482-1.11V12.177z" opacity=".2" fill="url(#n)" overflow="visible"/><path d="M13.5 14.435c.83.297 1.5 1.184 1.5 1.99v25.66c0 .805-.67 1.215-1.5.918-.83-.296-1.5-1.183-1.5-1.988V15.353c0-.805.67-1.214 1.5-.918zm21-.24c-.83.298-1.5 1.184-1.5 1.99v25.66c0 .806.67 1.215 1.5.92.83-.298 1.5-1.184 1.5-1.99v-25.66c0-.806-.67-1.215-1.5-.92z" opacity=".15" fill="url(#o)" overflow="visible"/><path d="M20.5 16.003c.83.038 1.5.726 1.5 1.543v26.047c0 .817-.67 1.445-1.5 1.407-.83-.038-1.5-.726-1.5-1.543V17.41c0-.817.67-1.444 1.5-1.407zm7 0c-.83.038-1.5.726-1.5 1.543v26.047c0 .817.67 1.445 1.5 1.407.83-.038 1.5-.726 1.5-1.543V17.41c0-.817-.67-1.444-1.5-1.407z" opacity=".3" fill="url(#p)" overflow="visible"/><g color="#000"><path transform="matrix(2.48705 0 0 1.9753 4.104 2.1)" d="M8 1.47c-1.757 0-3.354.218-4.47.56-.556.173-.983.37-1.25.564-.264.193-.31.33-.31.406v2c0 .077.046.213.31.406.267.193.694.39 1.25.563 1.116.34 2.713.56 4.47.56 1.757 0 3.354-.22 4.47-.56.556-.175.983-.37 1.25-.566.264-.193.31-.33.31-.406V3c0-.077-.046-.213-.31-.406-.267-.193-.694-.39-1.25-.563-1.116-.34-2.713-.56-4.47-.56z" fill="url(#q)" overflow="visible"/><path d="M24 4.5c-8.56 0-15.5 1.642-15.5 3.667v3.666c0 2.025 6.94 3.667 15.5 3.667 8.56 0 15.5-1.642 15.5-3.667V8.167C39.5 6.142 32.56 4.5 24 4.5z" opacity=".5" fill="none" stroke="#161b28" overflow="visible"/><path transform="matrix(2.07143 0 0 -.85714 -29.857 11.5)" d="M33 3.5C33 5.433 29.866 7 26 7s-7-1.567-7-3.5S22.134 0 26 0s7 1.567 7 3.5z" opacity=".7" fill="none" stroke="url(#r)" stroke-width=".75" stroke-linecap="round" stroke-linejoin="round" overflow="visible"/><path d="M20.143 4.5a.654.654 0 0 0-.643.667V8.5h2v-2h5v2h2V5.167a.654.654 0 0 0-.643-.667z" fill="#dcdcdd" overflow="visible"/><path d="M20.143 4.5a.654.654 0 0 0-.643.667V8.5h2V7c-.036-.396.54-.5.54-.5h3.955s.505.104.505.5v1.5h2V5.167a.654.654 0 0 0-.643-.667z" opacity=".3" fill="none" stroke="#161b28" overflow="visible"/></g></svg>
